X: 1
T: Chorus Jig
S: Dodd, 1795; Millar 1990
N: abc by Robert Bley-Vroman <vroman@hawaii.edu> June 1996
M: 6/8
L: 1/8
Q: 3/8=110
K: G % or D mixolydian
A | F2D DED | AFD DED | F2D DED | A3 BAG | 
    F2D DED | AFD DED | E2c cGc | G3 G2 
A | F2d dcd | F2A AGA | F2d d^cd | A3 BAG |
    F2d d^cd |F2A AGF | E2c cGc | G3 G2 
A | FDD ADD | BDD ADD | FDD ADD | A3 BAG |
    FDD ADD | BDD ADD | E2c cGc | G3 G2 
e | f2d e2^c |d^cB AGF | E2c cEc | A3 BAG |
    dBd cAc | BGB AGF | E2c cEc | G6 |
